X: 34716
T: Road To Glountane, The
R: barndance
M: 4/4
K: Dmajor
E2EF A2AB|ceec BAF2|f2 ec ABBA|ecBA FAAF|
E2EF ~A3B|ceec BAF2|f2 ec ABBA|1 ecBc A2AF:|2 ecBc A4||
|:e2ef a2 af|ecBA FAA2|cBAB cBBA|ceBA faaf|
e2ef ~a3f|ecBA FAA2|cBAB cBBA|1 ceBc A4:|2 ceBc A2AF||

